Hatter-kde/actions/16/object-group.svg

<?xml version="1.0" encoding="UTF-8"?>
<svg viewBox="0 0 16 16" xmlns="http://www.w3.org/2000/svg">
 <defs id="defs3051">
  <style id="current-color-scheme" type="text/css">.ColorScheme-Text {
        color:#363636;
      }</style>
 </defs>
 <path class="ColorScheme-Text" d="m2 2v12h12v-12h-11-1zm1 1h10v10h-10v-8-2zm3 1c-1.105 0-2 0.895-2 2s0.895 2 2 2 2-0.895 2-2-0.895-2-2-2zm3 0v4h3v-4h-3zm-4 5v3h2v-3h-2zm5.5 0-1.5 3h3l-1.5-3z" fill="currentColor"/>
</svg>

<svg xmlns="http://www.w3.org/2000/svg" viewBox="0 0 16 16">
  <defs id="defs3051">
    <style type="text/css" id="current-color-scheme">
      .ColorScheme-Text {
        color:#363636;
      }
      </style>
  </defs>
 <path style="fill:currentColor;fill-opacity:1;stroke:none" 
     d="M 2 2 L 2 14 L 14 14 L 14 2 L 3 2 L 2 2 z M 3 3 L 13 3 L 13 13 L 3 13 L 3 5 L 3 3 z M 6 4 C 4.895 4 4 4.895 4 6 C 4 7.105 4.895 8 6 8 C 7.105 8 8 7.105 8 6 C 8 4.895 7.105 4 6 4 z M 9 4 L 9 8 L 12 8 L 12 4 L 9 4 z M 5 9 L 5 12 L 7 12 L 7 9 L 5 9 z M 10.5 9 L 9 12 L 12 12 L 10.5 9 z "
     class="ColorScheme-Text"
     />
</svg>
